!!!COM: Ernest Chausson
!!!CNT: Francais
!!!TXO: Francais
!!!OTL: Nos Souvenirs
!!!OPS: Op. 8
!!!ONM: No. 4
!!!LYR: Maurice Bouchor
!!!ENC: Jacob Pegg
!!!YOR: 20 Songs for Voice and Piano, International Music Company, New York City, January, 1952
!!!ODT: 1888/
!!NB: Vocal melody and text only encoded.
**kern	**silbe
*clef G2	*
*k[f#c#]	*
*M2/4	*
=2	=2
8r	.
{8d	{Nos
8d	sou-
8d	-ve-
=3	=3
2e	-nirs,
=4	=4
4g	tou-
8g	-tes
8g	ces
=5	=5
8f#	cho-
8f#	-ses
12f#	Q'ua\
12g#	tous
12a	les
=6	=6
8g#	vents
8e	nous
8d#	ef-
8c#	-feuil-
=7	=7
2c#}	-lons}
=8	=8
{8a	{Com-
8a	-me
8a	les
8a	pe/-
=9	=9
4b	-ta-
8b	-les
8b	des
=10	=10
4.cc#	ro-
8cc#	-ses
=11	=11
8r	.
4dd	Ou\
8dd	des
=12	=12
8cc#	ai-
8g#	-les
12g#	de
12g#	pa-
12g#	-pil-
=13	=13
2g#}	-lons,}
=14	=14
8r	.
{8g	{Ont
8g	d'u-
8b	-ne
=15	=15
8a#	joie
8g#	e/-
8f#	-va-
8e	-nou-
=16	=16
4.g#	-ie
8d#	Gar-
=17	=17
2f#	-de/
=18	=18
12e	tout
12e	le
12e	par-
8f#	-fum
8gn	se-
=19	=19
[2dd	-cret
=20	=20
4dd]}	|}
4r	.
=21	=21
{8cc#	{Et
8cc#	c'est
8cc#	u-
8cc#	-ne
=22	=22
4b	chose
8b	i-
8b	-nou-
=23	=23
2a	-i2e
=24	=24
8g	Co-
8g	-me
8g	le
8g	pas-
=25	=25
[2f#	-se/
=26	=26
8f#]	|
4c#	re-
8d	-pa-
=27	=27
2d}	-rait.}
=30	=30
8r	.
{8d	{A
8d	de
8d	cer-
=31	=31
8e	-tains
8e	mo-
4e	-ments
=32	=32
4r	.
4e	il
=33	=33
8f#	sem-
8f#	-ble
8g#	que
8a	le
=34	=34
4.g#	re^-
8e	-ve
=35	=35
4e	du-
8d#	-re
8cc#	tou-
=36	=36
2c#}	-jours}
=37	=37
8r	.
{8a	{Et
8a	que
8a	l'on
=38	=38
8.b	soit
16b	en-
8b	-core
8b	en-
=39	=39
4.cc#	-sem-
8g#	-ble
=40	=40
8r	.
4dd	Comme
8dd	au
=41	=41
4cc#	temps
8g#	des
8g#	de/-
=42	=42
4g#	-funts
4g#	a-
=43	=43
[2b	-mours
=44	=44
4b_	|
8b]}	|}
8r	.
=49	=49
4r	.
8r	.
{8d	{Pen-
=50	=50
8e-	-dant
16e-	qu'a\
16e-	de-
12g	-me
12g	l'on
12g	som-
=51	=51
4a	-meil-
16a	-le
16r	.
8a	Ber-
=52	=52
8a	-ce/
16g	par
16g	la
12g	va-
12a	-gue
12b-	chan-
=53	=53
12bn}	-son}
{12g	{D'u-
12f#	-ne
6e#	voix
12e#	qui
=54	=54
12f#	char-
12g	-me
12a	l'o-
4a	-reil-
=55	=55
8a	-le,
8r	.
8a	Sur
8a	les
=56	=56
4b-	le\-
8d	-vres
8d	vol-
=57	=57
4fn	-tige
4fn	un
=58	=58
2f#}	nom}
=60	=60
4r	.
{8f#	{Et
8f#	cette
=61	=61
2g	heure
=62	=62
8a	ou\
8a	l'on
8g	se
8g	rap-
=63	=63
4f#	-pel-
8f#	-le
8b	Son
=64	=64
4b	coeur
8cc#	fol-
8dd	-le-
=65	=65
6dd	-ment
6cc#	de/-
6b	-pen-
=66	=66
[2g	-se/
=67	=67
8g]}	|}
{8e	{Est
8f#	comme
8g	un
=68	=68
8g#	fris-
8g#	-son-
8a	-ne-
8b	-ment
=69	=69
[2cc#	d'ai-
=70	=70
8cc#]	_
8b	-le
8b	Qui
8b	s'en
=71	=71
4a	vient
8g	du
8g	joy-
=72	=72
8f#	-eux
8f#	pas-
[4f#	-se/.
=73	=73
2f#_	|
=74	=74
4f#]}	|}
4r	.
*-	*-
